X: 061
T: Madam Del Caro's Reel
%O: 1795
R: reel
Z: 2018 John Chambers <jc:trillian.mit.edu>
B: Wm. Campbell "10th Book of New and Favorite Country Dances, Strathey Reels" 1795 p.6
F: https://archive.org/details/campbellstenthbo00camp
M: 2/4
L: 1/16
K: Bb
% - - - - - - - - - - - - - - - - - - - - - - - - -
% Voice 1 arranged for small-scale proofreading
V: 1 staves=2
|:\
B3df3b | a3gf3g | f3ed3c | d3ef4 |\
B3df3b | a3gf3e | d3cB3A | B4B,4 :|
|:\
B3df3b | (g/a/b3) (g/a/b3) | F3Ac3e | (d/e/f3) (d/e/f3) | B3df3b | (g/a/b3) (g/a/b3) | d3cB3A | B4B4 :|
% - - - - - - - - - - - - - - - - - - - - - - - - -
% Voice 1 preserves the original staff layout
V: 2 clef=bass middle=d
|:\
B4B4 | B4B4 | B4B4 | f4f4 | B4B4 | B4B4 |
f4F4 | B4B4 :||: B4B4 | B4B4 | f4f4 | f4f4 |
B4B4 | B4B4 | f4F4 | B4B4 :|
% - - - - - - - - - - - - - - - - - - - - - - - - -
%%begintext align
%% 1st & 2d Cu turn right hands & cast off
%% one Cu turn Left hands & cast up again
%% cross over half Figure Right and Left
%% at top.
%%endtext
% - - - - - - - - - - - - - - - - - - - - - - - - -

%%sep 1 1 500
%%sep 1 1 500

